X:3
T:ENNISKILLEN DRAGOONS/ The Lawland Lads Think They Are Fine  # 2
M:6/8
L:1/8
R:Jig
K:D
|:D   |"D" DED "/A"FGF | "D" ABA "A" f2e | "D" dAF  "G"  GAB | "D" AdF "A" FED  |!
"D" DED "/A" ABA | "Bm" ded "G" a2g | "D/F#" fdA "Em" Bcd | "A"  ABA "D"F<D :|!
|: z|"D" F2 G   "/F#"A2d | "A" fed "A/C#"  eAG | "D" F2f  "E"   fed | "A" c2d "A/C#" eAG  |!
"D" F2d "Em" dcB | "D/F#"F2g "G" f2e | "D/A" fdA "Em" Bcd | "A"  ABA "D"F<D :|
